X: 37010
T: Siege Of Ennis, The
R: polka
M: 2/4
K: Gmajor
|:D>E DB,|DE GA|Bc/B/ AB/A/|GE dE|
D>E DB,|DE GA|Bc/B/ AB/A/|G2 G2:|
Bd dB|ce ed|Bd AB|GE EA|
Bd dB|ce ef|fg f/e/d|e2 e2|
g2 f/e/d|ed BA|Bd AB|GE E2|
D>E DB,|DE GA|Bd AB|G2 G2||

